data/sheikah/r.svg

<!-- Generated by IcoMoon.io -->
<svg version="1.1" xmlns="http://www.w3.org/2000/svg" width="1024" height="1024" viewBox="0 0 1024 1024">
<title></title>
<g id="icomoon-ignore">
</g>
<path d="M153.5 751h119.5v119.5h-119.5v-119.5zM751 751h119.5v119.5h-119.5v-119.5zM153.5 472v-199l119.5-119.5h79.5l119.5 119.5v79.5h80v-79.5l119.5-119.5h79.5l119.5 119.5v199h-119.5v-199h-79.5v79.5l-119.5 119.5h-80l-119.5-119.5v-79.5h-79.5v199h-119.5zM153.5 552h199l119.5 119.5v79.5h80v-79.5l119.5-119.5h199v119.5h-199v79.5l-119.5 119.5h-80l-119.5-119.5v-79.5h-199v-119.5z"></path>
</svg>

<svg xmlns="http://www.w3.org/2000/svg" width="1024" height="1024" viewBox="0 0 1024 1024">
  <title/>
  <path d="M153.5 751H273v119.5H153.5zm597.5 0h119.5v119.5H751zM153.5 472V273L273 153.5h79.5L472 273v79.5h80V273l119.5-119.5H751L870.5 273v199H751V273h-79.5v79.5L552 472h-80L352.5 352.5V273H273v199zm0 80h199L472 671.5V751h80v-79.5L671.5 552h199v119.5h-199V751L552 870.5h-80L352.5 751v-79.5h-199z"/>
</svg>
